svg/system/entrance_line.svg

<?xml version="1.0" encoding="UTF-8"?>
<svg width="24px" height="24px" viewBox="0 0 24 24" version="1.1" xmlns="http://www.w3.org/2000/svg" xmlns:xlink="http://www.w3.org/1999/xlink">
    <title>exit_line</title>
    <g id="页面-1" stroke="none" stroke-width="1" fill="none" fill-rule="evenodd">
        <g id="System" transform="translate(-720.000000, -96.000000)" fill-rule="nonzero">
            <g id="exit_line" transform="translate(720.000000, 96.000000)">
                 <path d="M24,0 L24,24 L0,24 L0,0 L24,0 Z M12.5934901,23.257841 L12.5819402,23.2595131 L12.5108777,23.2950439 L12.4918791,23.2987469 L12.4918791,23.2987469 L12.4767152,23.2950439 L12.4056548,23.2595131 C12.3958229,23.2563662 12.3870493,23.2590235 12.3821421,23.2649074 L12.3780323,23.275831 L12.360941,23.7031097 L12.3658947,23.7234994 L12.3769048,23.7357139 L12.4804777,23.8096931 L12.4953491,23.8136134 L12.4953491,23.8136134 L12.5071152,23.8096931 L12.6106902,23.7357139 L12.6232938,23.7196733 L12.6232938,23.7196733 L12.6266527,23.7031097 L12.609561,23.275831 C12.6075724,23.2657013 12.6010112,23.2592993 12.5934901,23.257841 L12.5934901,23.257841 Z M12.8583906,23.1452862 L12.8445485,23.1473072 L12.6598443,23.2396597 L12.6498822,23.2499052 L12.6498822,23.2499052 L12.6471943,23.2611114 L12.6650943,23.6906389 L12.6699349,23.7034178 L12.6699349,23.7034178 L12.678386,23.7104931 L12.8793402,23.8032389 C12.8914285,23.8068999 12.9022333,23.8029875 12.9078286,23.7952264 L12.9118235,23.7811639 L12.8776777,23.1665331 C12.8752882,23.1545897 12.8674102,23.1470016 12.8583906,23.1452862 L12.8583906,23.1452862 Z M12.1430473,23.1473072 C12.1332178,23.1423925 12.1221763,23.1452606 12.1156365,23.1525954 L12.1099173,23.1665331 L12.0757714,23.7811639 C12.0751323,23.7926639 12.0828099,23.8018602 12.0926481,23.8045676 L12.108256,23.8032389 L12.3092106,23.7104931 L12.3186497,23.7024347 L12.3186497,23.7024347 L12.3225043,23.6906389 L12.340401,23.2611114 L12.337245,23.2485176 L12.337245,23.2485176 L12.3277531,23.2396597 L12.1430473,23.1473072 Z" id="MingCute" fill-rule="nonzero"></path>
                <path d="M12,3 C12.5523,3 13,3.44772 13,4 C13,4.51283143 12.613973,4.93550653 12.1166239,4.9932722 L12,5 L7,5 C6.48716857,5 6.06449347,5.38604429 6.0067278,5.88337975 L6,6 L6,18 C6,18.51285 6.38604429,18.9355092 6.88337975,18.9932725 L7,19 L11.5,19 C12.0523,19 12.5,19.4477 12.5,20 C12.5,20.51285 12.113973,20.9355092 11.6166239,20.9932725 L11.5,21 L7,21 C5.40232321,21 4.09633941,19.7511226 4.00509271,18.1762773 L4,18 L4,6 C4,4.40232321 5.24892392,3.09633941 6.82372764,3.00509271 L7,3 L12,3 Z M14.2928,8.46447 C14.6834,8.07394 15.3165,8.07394 15.707,8.46447 C16.0675538,8.82495 16.0952888,9.39218503 15.7902047,9.7844735 L15.707,9.87868 L14.5857,11 L20,11 C20.5523,11 21,11.4477 21,12 C21,12.51285 20.613973,12.9355092 20.1166239,12.9932725 L20,13 L14.5857,13 L15.707,14.1213 C16.0976,14.5118 16.0976,15.145 15.707,15.5355 C15.3465385,15.8960538 14.7793645,15.9237888 14.3870224,15.6187047 L14.2928,15.5355 L11.4644,12.7071 C11.1039385,12.3466385 11.0762107,11.7793793 11.3812166,11.3871027 L11.4644,11.2929 L14.2928,8.46447 Z" id="形状" fill="#09244B"></path>
            </g>
        </g>
    </g>
</svg>

<svg xmlns="http://www.w3.org/2000/svg" width="24" height="24"><g fill="none" fill-rule="nonzero"><path d="M24 0v24H0V0h24ZM12.593 23.258l-.011.002-.071.035-.02.004-.014-.004-.071-.035c-.01-.004-.019-.001-.024.005l-.004.01-.017.428.005.02.01.013.104.074.015.004.012-.004.104-.074.012-.016.004-.017-.017-.427c-.002-.01-.009-.017-.017-.018Zm.265-.113-.013.002-.185.093-.01.01-.003.011.018.43.005.012.008.007.201.093c.012.004.023 0 .029-.008l.004-.014-.034-.614c-.003-.012-.01-.02-.02-.022Zm-.715.002a.023.023 0 0 0-.027.006l-.006.014-.034.614c0 .012.007.02.017.024l.015-.002.201-.093.01-.008.004-.011.017-.43-.003-.012-.01-.01-.184-.092Z"/><path fill="#09244B" d="M12 3a1 1 0 0 1 .117 1.993L12 5H7a1 1 0 0 0-.993.883L6 6v12a1 1 0 0 0 .883.993L7 19h4.5a1 1 0 0 1 .117 1.993L11.5 21H7a3 3 0 0 1-2.995-2.824L4 18V6a3 3 0 0 1 2.824-2.995L7 3h5Zm2.293 5.464a1 1 0 0 1 1.497 1.32l-.083.095L14.586 11H20a1 1 0 0 1 .117 1.993L20 13h-5.414l1.121 1.121a1 1 0 0 1-1.32 1.498l-.094-.083-2.829-2.829a1 1 0 0 1-.083-1.32l.083-.094 2.829-2.829Z"/></g></svg>
